X: 21483
M: 3/4
L: 1/8
K: D
c2 (d2 ^d2) | (f4 e2) | (Ac) (e2 f2) | d4 :|
|: A2 |\
(^G4 A2) | (B4 A2) | E2 (B2 A2) | G2 (E2 F2) |\
f2) e2 A2 | e4 (ef | e2) d2 A2 | d4 :|


